X: 89
T:Missa Faisant regretz / Sanctus
N: Derived from Jos0801d-Missa_Faisant_regretz-Sanctus.krn
C: Josquin des Prez
%%abc-version 2.0
%%abcx-abcm2ps-target-version 5.9.1 (29 Sep 2008)
%%abc-creator hum2abc beta
%%abcx-conversion-date 2019/02/12 16:15:42
%%abc-edited-by Jesse Rodin
%%abc-edited-by Jesse Rodin; Victoria Chang 2011/09/06
%%abcx-initial-encoding-date 2011/09/06/
%%humdrum-veritas 3351724747
%%humdrum-veritas-data 1778479130
%%linebreak <none>
%%barnumbers 0
L: 1/4
M: 3/1
Q: 1/2=120
%%staves [1 2 3 4]
V: 1 clef=treble
V: 2 clef=treble-8
V: 3 clef=treble-8
V: 4 clef=bass
K: F
[V:1] z12 | 
[V:2] B6G2G4 | 
[V:3] B12 | 
[V:4] z12 | 
[V:1] B6G2G4 | 
[V:2] z4g6e2 | 
[V:3] G12 | 
[V:4] z12 | 
[V:1] z2c4A2A4 | 
[V:2] e3cc8 | 
[V:3] A12 | 
[V:4] z12 | 
[V:1] z2B4G2G4 | 
[V:2] g3fd2_e3dB2 | 
[V:3] G12 | 
[V:4] G,6_E,2E,4 | 
[V:1] z4G6_E2 | 
[V:2] c2G2z2c3BG2 | 
[V:3] _e12 | 
[V:4] z2_E,4C,2C,4 | 
[V:1] _E3CC2c3Bc2 | 
[V:2] A2G2A6F2 | 
[V:3] c12 | 
[V:4] z2C,4A,,2A,,4 | 
[V:1] A2d3cBAB4 | 
[V:2] F4z2G3FG2 | 
[V:3] d12 | 
[V:4] z2B,,4G,,2G,,4 | 
[V:1] c4z2c3BAG | 
[V:2] A2G2A6F2 | 
[V:3] c12 | 
[V:4] z2C,4A,,2A,,4 | 
[V:1] A3DD8 | 
[V:2] F4z2B4B2 | 
[V:3] f12 | 
[V:4] z2D,4B,,2B,,4 | 
[V:1] d6B2B3G | 
[V:2] B2G3FGABcdB | 
[V:3] d12 | 
[V:4] z2B,4G,2G,4 | 
[V:1] G3AG2c3BAG | 
[V:2] c4z4c4 | 
[V:3] e12 | 
[V:4] z2C4A,2A,4 | 
[V:1] FDd4B2B4 | 
[V:2] d2G3FGABcdB | 
[V:3] d12 | 
[V:4] z2B,4G,2G,4 | 
[V:1] z2c4A2A4 | 
[V:2] c3AA6F2 | 
[V:3] c12 | 
[V:4] z2A,4F,2F,4 | 
[V:1] z2A4F2F4- | 
[V:2] F4f6d2 | 
[V:3] A12 | 
[V:4] z2F,4D,2D,4 | 
[V:1] F2D2D4z2G2 | 
[V:2] d4z2d3cde | 
[V:3] B12 | 
[V:4] z2B,,4G,,2G,,4 | 
[V:1] A4F3GA4 | 
[V:2] f3ef2d2c4 | 
[V:3] A12 | 
[V:4] z2D,3C,D,E,F,G,A,F, | 
[V:1] D6D2D4 | 
[V:2] B3AG3F/E/D2d2 | 
[V:3] B12 | 
[V:4] G,2G,,3F,,G,,A,,B,,C,D,B,, | 
[V:1] z2G3FGABcdB | 
[V:2] e2c2e4d4 | 
[V:3] G12 | 
[V:4] C,8G,,4 | 
[V:1] c2F3EFGABcA | 
[V:2] c2d2f3ec4 | 
[V:3] A12 | 
[V:4] z2D,3C,D,E,F,G,A,F, | 
[V:1] B2G3FGABcdB | 
[V:2] B8d4 | 
[V:3] G12- | 
[V:4] G,6G,,2G,,4 | 
[V:1] c6G2c4 | 
[V:2] c4_e8 | 
[V:3] G12- | 
[V:4] C,8C,4 | 
[V:1] B12 ||  
[V:2] d12 ||  
[V:3] G12 ||  
[V:4] G,,12 ||  
[V:1]  [K:F] [K:clef=treble][M:2/1]z8 | 
[V:2]  [K:F] [K:clef=treble-8][M:2/1]z8 | 
[V:3]  [K:F] [K:clef=treble-8][M:2/1]z8 | 
[V:4]  [K:F] [K:clef=bass][M:2/1]D,4F,4- | 
[V:1] z8 | 
[V:2] z8 | 
[V:3] z8 | 
[V:4] F,2G,2A,2B,2- | 
[V:1] z8 | 
[V:2] D4F4- | 
[V:3] z8 | 
[V:4] B,2A,G,A,4 | 
[V:1] z8 | 
[V:2] F2G2A2B2- | 
[V:3] z8 | 
[V:4] D,8- | 
[V:1] D4F4- | 
[V:2] B2AGA4 | 
[V:3] z8 | 
[V:4] D,8 | 
[V:1] F2G2A2B2- | 
[V:2] D4z2G2- | 
[V:3] z8 | 
[V:4] z8 | 
[V:1] B2AGA4 | 
[V:2] G2FEF2GA | 
[V:3] z8 | 
[V:4] z8 | 
[V:1] D8 | 
[V:2] B6AG | 
[V:3] z8 | 
[V:4] z2G,4F,E, | 
[V:1] z4z2D2- | 
[V:2] A2G2d4 | 
[V:3] z8 | 
[V:4] F,2G,A,B,4- | 
[V:1] D2CB,C2DE | 
[V:2] z8 | 
[V:3] z8 | 
[V:4] B,2A,G,A,2D,2 | 
[V:1] F6ED | 
[V:2] z2d4cB | 
[V:3] z8 | 
[V:4] D,8 | 
[V:1] E2D2G4- | 
[V:2] c2B4AG | 
[V:3] z8 | 
[V:4] z8 | 
[V:1] G2FEF2GA | 
[V:2] A2D2d4- | 
[V:3] z8 | 
[V:4] z8 | 
[V:1] B6AG | 
[V:2] d2cBc2F2 | 
[V:3] z8 | 
[V:4] z8 | 
[V:1] A2D2d4 | 
[V:2] f6ed | 
[V:3] z8 | 
[V:4] z2D,4C,B,, | 
[V:1] z2d4cB | 
[V:2] e2d2z2d2 | 
[V:3] z8 | 
[V:4] C,2B,,2B,4 | 
[V:1] c2F2B4 | 
[V:2] c2d4cB | 
[V:3] z8 | 
[V:4] z2B,,4A,,G,, | 
[V:1] z2B4AG | 
[V:2] c2B2z2B2 | 
[V:3] z8 | 
[V:4] A,,2G,,2G,4 | 
[V:1] A2D2G4 | 
[V:2] A2B4AG | 
[V:3] z8 | 
[V:4] z2G,4F,E, | 
[V:1] z2G4FE | 
[V:2] A2G2c4 | 
[V:3] z8 | 
[V:4] F,2G,2A,4 | 
[V:1] F2G2A4 | 
[V:2] z2c4BA | 
[V:3] z8 | 
[V:4] z8 | 
[V:1] D4G4 | 
[V:2] B2G2B3c | 
[V:3] z8 | 
[V:4] z2G,4F,E, | 
[V:1] z2G4FE | 
[V:2] A2G2c4 | 
[V:3] z8 | 
[V:4] F,2G,2A,4 | 
[V:1] F2G2A4 | 
[V:2] z2c4BA | 
[V:3] z8 | 
[V:4] z8 | 
[V:1] D2E2F2G2- | 
[V:2] B2c2d2G2 | 
[V:3] z8 | 
[V:4] z4D,2E,2 | 
[V:1] GFD2E4 | 
[V:2] A2B2c4 | 
[V:3] z8 | 
[V:4] F,2G,2C,4 | 
[V:1] D8- | 
[V:2] B8 | 
[V:3] z8 | 
[V:4] G,8- | 
[V:1] D8 | 
[V:2] z4G4 | 
[V:3] z8 | 
[V:4] G,8 | 
[V:1] D4D4 | 
[V:2] G4B3c | 
[V:3] z8 | 
[V:4] z8 | 
[V:1] F3GABA2- | 
[V:2] d_ed4cB | 
[V:3] z8 | 
[V:4] z8 | 
[V:1] A2GFE4 | 
[V:2] A4G4 | 
[V:3] z8 | 
[V:4] z8 | 
[V:1] D8 | 
[V:2] z4D4 | 
[V:3] z8 | 
[V:4] G,,4G,,4 | 
[V:1] z8 | 
[V:2] D4F3G | 
[V:3] z8 | 
[V:4] B,,3C,D,_E,D,2- | 
[V:1] z8 | 
[V:2] ABA4GF | 
[V:3] z8 | 
[V:4] D,2C,B,,A,,4 | 
[V:1] z4D4 | 
[V:2] E4D4 | 
[V:3] z8 | 
[V:4] G,,4z4 | 
[V:1] D4F3G | 
[V:2] z4A4 | 
[V:3] z8 | 
[V:4] D,4D,4 | 
[V:1] ABA4GF | 
[V:2] A4c4- | 
[V:3] z8 | 
[V:4] F,3G,A,B,A,2- | 
[V:1] E3DG4 | 
[V:2] c2BAG3A | 
[V:3] z8 | 
[V:4] A,2G,F,E,4 | 
[V:1] F4z2D2- | 
[V:2] BAB4AG | 
[V:3] z8 | 
[V:4] D,8 | 
[V:1] D2D2F3G | 
[V:2] B2A2z2A2- | 
[V:3] z8 | 
[V:4] z2D,4D,2 | 
[V:1] ABA4GF | 
[V:2] A2A2c4- | 
[V:3] z8 | 
[V:4] F,3G,A,B,A,2- | 
[V:1] E3DG4 | 
[V:2] c2BAG3A | 
[V:3] z8 | 
[V:4] A,2G,F,E,4 | 
[V:1] F8- | 
[V:2] BAB4AG | 
[V:3] z8 | 
[V:4] D,8- | 
[V:1] F8- | 
[V:2] B2A2d3c | 
[V:3] z8 | 
[V:4] D,8- | 
[V:1] F8 ||  
[V:2] A8 ||  
[V:3] z8 ||  
[V:4] D,8 ||  
[V:1]  [K:F] [K:clef=treble][M:2/1]z8 | 
[V:2]  [K:F] [K:clef=treble-8][M:2/1]z2D2EDG2- | 
[V:3]  [K:F] [K:clef=treble-8][M:2/1]z8 | 
[V:4]  [K:F] [K:clef=bass][M:2/1]B,,4G,,4 | 
[V:1] z4z2D2 | 
[V:2] G2^F2G4- | 
[V:3] z4B4 | 
[V:4] A,,4G,,4 | 
[V:1] EDG4^F2 | 
[V:2] G2E2D4 | 
[V:3] G4A4 | 
[V:4] z8 | 
[V:1] G4z2C2 | 
[V:2] z2E2FEA2- | 
[V:3] G4z4 | 
[V:4] C,4A,,4 | 
[V:1] D3EF2E2 | 
[V:2] A2G2A4- | 
[V:3] z4c4 | 
[V:4] B,,4A,,4 | 
[V:1] FEA4G2 | 
[V:2] A2F2G4 | 
[V:3] A4B4 | 
[V:4] z8 | 
[V:1] A4z2D2 | 
[V:2] z2F2GFB2- | 
[V:3] A4z4 | 
[V:4] D,4B,,4 | 
[V:1] E3FG2F2 | 
[V:2] B2A2B4- | 
[V:3] z4d4 | 
[V:4] C,4B,,4 | 
[V:1] GFB4A2 | 
[V:2] B2AGF4 | 
[V:3] B4c4 | 
[V:4] z8 | 
[V:1] B2G4A2- | 
[V:2] G2_e3dc2- | 
[V:3] B4z4 | 
[V:4] _E,4C,4 | 
[V:1] A2F2A2G2- | 
[V:2] cAB2c4- | 
[V:3] z4_e4 | 
[V:4] D,4C,4 | 
[V:1] G2c4B2 | 
[V:2] c4z2G2 | 
[V:3] c4d4 | 
[V:4] z8 | 
[V:1] c2A4F2 | 
[V:2] A2F3Dd2- | 
[V:3] c4z4 | 
[V:4] F,4D,4 | 
[V:1] G2E2F2D2- | 
[V:2] d2c2d2A2 | 
[V:3] z4f4 | 
[V:4] E,4D,4 | 
[V:1] D2d4^c2 | 
[V:2] B2F2G2A2 | 
[V:3] d4e4 | 
[V:4] z8 | 
[V:1] d6B2 | 
[V:2] D2B3AG2- | 
[V:3] d4z4 | 
[V:4] B,,4G,,4 | 
[V:1] c2A2B2G2- | 
[V:2] G2^F2G4 | 
[V:3] z4B4 | 
[V:4] A,,4G,,4 | 
[V:1] GEE4C2 | 
[V:2] E3CE2F2 | 
[V:3] G4A4 | 
[V:4] z2C,4A,,2 | 
[V:1] D3EF2E2 | 
[V:2] D4A4 | 
[V:3] G4z2c2- | 
[V:4] B,,4A,,4 | 
[V:1] F6D2 | 
[V:2] F3DF2G2 | 
[V:3] c2A2B4 | 
[V:4] z2D,4B,,2 | 
[V:1] E4D3E | 
[V:2] E3FGAB2- | 
[V:3] A4z2d2- | 
[V:4] C,4B,,4 | 
[V:1] F2G4E2 | 
[V:2] BAGFG2A2 | 
[V:3] d2B2c4 | 
[V:4] z2_E,4C,2 | 
[V:1] F3GA2G2 | 
[V:2] F4c4 | 
[V:3] B4z2_e2- | 
[V:4] D,4C,4 | 
[V:1] A6F2 | 
[V:2] A3FA2B2 | 
[V:3] e2c2d4 | 
[V:4] z2F,4D,2 | 
[V:1] G3AB2A2- | 
[V:2] G4d3c | 
[V:3] c4z2f2- | 
[V:4] E,4D,4 | 
[V:1] A2F2G2E2 | 
[V:2] A2B2G2A2 | 
[V:3] f2d2e4 | 
[V:4] z8 | 
[V:1] F2D4E2- | 
[V:2] F2G2D2G2- | 
[V:3] d4z4 | 
[V:4] z2B,,4G,,2 | 
[V:1] E2C2E2D2- | 
[V:2] GEF2G3A | 
[V:3] z4z2B2- | 
[V:4] A,,4G,,4 | 
[V:1] D2G4^F2 | 
[V:2] B2c2d4- | 
[V:3] B2G2A4 | 
[V:4] D,2_E,2D,4 | 
[V:1] G8 ||  
[V:2] d8 ||  
[V:3] G8 ||  
[V:4] G,,8 ||  
[V:1]  [K:F] [K:clef=treble][M:2/1]D3EF2G2- | 
[V:2]  [K:F] [K:clef=treble-8][M:2/1]z8 | 
[V:3]  [K:F] [K:clef=treble-8][M:2/1]B8 | 
[V:4]  [K:F] [K:clef=bass][M:2/1]z8 | 
[V:1] GABGc4 | 
[V:2] z8 | 
[V:3] G4A4 | 
[V:4] z8 | 
[V:1] B6AG | 
[V:2] z8 | 
[V:3] G4B4- | 
[V:4] z8 | 
[V:1] F2G2C2E2 | 
[V:2] z8 | 
[V:3] B2G2A2G2 | 
[V:4] z8 | 
[V:1] D2G4^F2 | 
[V:2] z8 | 
[V:3] B2G2A4 | 
[V:4] z8 | 
[V:1] G8 | 
[V:2] G3AB2c2- | 
[V:3] G8 | 
[V:4] _E,8 | 
[V:1] z8 | 
[V:2] cd_ecf4 | 
[V:3] z8 | 
[V:4] C,4D,4 | 
[V:1] z8 | 
[V:2] _e6dc | 
[V:3] z8 | 
[V:4] C,4_E,4- | 
[V:1] z8 | 
[V:2] B2c2F2A2 | 
[V:3] z8 | 
[V:4] E,2C,2D,2C,2 | 
[V:1] z8 | 
[V:2] G2c4=B2 | 
[V:3] z8 | 
[V:4] _E,2C,2D,4 | 
[V:1] z4G4 | 
[V:2] c8 | 
[V:3] _e8 | 
[V:4] C,8 | 
[V:1] A6F2 | 
[V:2] z8 | 
[V:3] c4d4 | 
[V:4] z8 | 
[V:1] A4G4- | 
[V:2] z8 | 
[V:3] c4_e4- | 
[V:4] z8 | 
[V:1] G2A2F2A2 | 
[V:2] z8 | 
[V:3] e2c2d2c2 | 
[V:4] z8 | 
[V:1] G2A4GF | 
[V:2] z8 | 
[V:3] _e2c2d4 | 
[V:4] z8 | 
[V:1] E8 | 
[V:2] z2G3FG2 | 
[V:3] c8 | 
[V:4] C,8 | 
[V:1] z8 | 
[V:2] A2F4ED | 
[V:3] z8 | 
[V:4] A,,4B,,4 | 
[V:1] z8 | 
[V:2] F2E4A2 | 
[V:3] z8 | 
[V:4] A,,4C,4- | 
[V:1] z8 | 
[V:2] G2A2D2F2 | 
[V:3] z8 | 
[V:4] C,2A,,2B,,2A,,2 | 
[V:1] z8 | 
[V:2] E2A4G2 | 
[V:3] z8 | 
[V:4] C,2A,,2B,,4 | 
[V:1] z4E4 | 
[V:2] A8 | 
[V:3] c8 | 
[V:4] A,,8 | 
[V:1] F4G4 | 
[V:2] z8 | 
[V:3] A4B4 | 
[V:4] z8 | 
[V:1] A4G2A2- | 
[V:2] z8 | 
[V:3] A4c4- | 
[V:4] z8 | 
[V:1] AGFED2F2 | 
[V:2] z8 | 
[V:3] c2A2B2A2 | 
[V:4] z8 | 
[V:1] E2F4ED | 
[V:2] z8 | 
[V:3] c2A2B4 | 
[V:4] z8 | 
[V:1] C8 | 
[V:2] z4A4 | 
[V:3] A8 | 
[V:4] F,8 | 
[V:1] z8 | 
[V:2] B4c4 | 
[V:3] z8 | 
[V:4] D,4E,4 | 
[V:1] z8 | 
[V:2] d6cB | 
[V:3] z8 | 
[V:4] D,4F,4- | 
[V:1] z8 | 
[V:2] A2B2G2B2 | 
[V:3] z8 | 
[V:4] F,2D,2E,2D,2 | 
[V:1] z8 | 
[V:2] A2d4^c2 | 
[V:3] z8 | 
[V:4] F,2D,2E,4 | 
[V:1] z4A4 | 
[V:2] d8 | 
[V:3] f8 | 
[V:4] D,8 | 
[V:1] B4G3A | 
[V:2] z8 | 
[V:3] d4e4 | 
[V:4] z8 | 
[V:1] B2A3GFE | 
[V:2] z8 | 
[V:3] d4f4- | 
[V:4] z8 | 
[V:1] D2F2G2B2 | 
[V:2] z8 | 
[V:3] f2d2e2d2 | 
[V:4] z8 | 
[V:1] A2B4AG | 
[V:2] z8 | 
[V:3] f2d2e4 | 
[V:4] z8 | 
[V:1] B2A2F4 | 
[V:2] z4d4 | 
[V:3] d8 | 
[V:4] z4B,4 | 
[V:1] z8 | 
[V:2] e4f4 | 
[V:3] z8 | 
[V:4] G,4A,4 | 
[V:1] z8 | 
[V:2] g6fe | 
[V:3] z8 | 
[V:4] G,4B,4- | 
[V:1] z8 | 
[V:2] d2e2f2g2 | 
[V:3] z8 | 
[V:4] B,2G,2A,2G,2 | 
[V:1] z8 | 
[V:2] d2g4^f2 | 
[V:3] z8 | 
[V:4] B,2G,2A,4 | 
[V:1] [M:3/1]D4E4F4 | 
[V:2] [M:3/1]g8z4 | 
[V:3] [M:3/1]B4G4A4 | 
[V:4] [M:3/1]G,8z4 | 
[V:1] G6D2E4 | 
[V:2] d8c4 | 
[V:3] G4B4G4 | 
[V:4] G,8E,4 | 
[V:1] F4G4D4 | 
[V:2] d4B8 | 
[V:3] A4G4B4 | 
[V:4] D,4G,6F,2 | 
[V:1] G8^F4 | 
[V:2] c4d8 | 
[V:3] G4A8 | 
[V:4] E,4D,8 | 
[V:1] G12 ||  
[V:2] d12 ||  
[V:3] G12 ||  
[V:4] G,,12 ||  



